assets/svg/icon_dapp_games.svg

<svg width="24" height="24" viewBox="0 0 24 24" fill="none" xmlns="http://www.w3.org/2000/svg">
<path d="M10.5633 9.11943L10.6957 9.70463H10.6957L10.5633 9.11943ZM11.1437 8.67884L11.6677 8.97098L11.6677 8.97098L11.1437 8.67884ZM9.91641 10.6859L9.46041 11.0759L9.91641 10.6859ZM10.3915 9.1583L10.259 8.57309H10.259L10.3915 9.1583ZM10.2552 11.5358L10.8524 11.5937L10.2552 11.5358ZM10.0335 10.8229L10.4895 10.4329L10.0335 10.8229ZM11.4812 12.6627L11.7322 13.2077L11.7322 13.2077L11.4812 12.6627ZM10.2375 11.7185L9.64032 11.6607L10.2375 11.7185ZM12.3595 12.5886L12.6104 12.0436L12.6104 12.0436L12.3595 12.5886ZM11.6421 12.5886L11.3911 12.0436L11.3911 12.0436L11.6421 12.5886ZM12.0008 12.4666V11.8666V12.4666ZM13.764 11.7185L13.1668 11.7764L13.1668 11.7764L13.764 11.7185ZM12.5203 12.6627L12.2694 13.2077L12.2694 13.2077L12.5203 12.6627ZM13.968 10.8229L13.512 10.4329H13.512L13.968 10.8229ZM13.7463 11.5358L14.3435 11.4779L14.3435 11.4779L13.7463 11.5358ZM13.6101 9.1583L13.4777 9.74351L13.6101 9.1583ZM14.0852 10.6859L14.5412 11.0759H14.5412L14.0852 10.6859ZM12.8579 8.67884L12.3338 8.97098L12.3338 8.97098L12.8579 8.67884ZM13.4383 9.11943L13.5707 8.53422L13.4383 9.11943ZM12.7694 8.52011L13.2935 8.22797L13.2935 8.22797L12.7694 8.52011ZM11.2321 8.52011L10.7081 8.22797L10.7081 8.22797L11.2321 8.52011ZM12.002 16.661L12.4335 16.2442C12.3205 16.1272 12.1647 16.061 12.002 16.061C11.8392 16.061 11.6834 16.1272 11.5704 16.2442L12.002 16.661ZM8.60764 20.1755L9.03922 20.5924H9.03922L8.60764 20.1755ZM6.22711 19.3985L5.63 19.4574L6.22711 19.3985ZM6.11213 18.6575L5.54715 18.8595L6.11213 18.6575ZM4.64525 17.7607L4.58215 18.3573H4.58215L4.64525 17.7607ZM5.36095 17.8797L5.57569 17.3195L5.57569 17.3194L5.36095 17.8797ZM3.8948 15.2958L4.32638 15.7127L3.8948 15.2958ZM3.08154 16.2639L3.63965 16.4842L3.63965 16.4842L3.08154 16.2639ZM3.4712 17.5437L3.15792 18.0555L3.15793 18.0555L3.4712 17.5437ZM7.67265 21.0176L7.43887 20.465H7.43886L7.67265 21.0176ZM6.4366 20.6141L5.91557 20.9117L5.91557 20.9117L6.4366 20.6141ZM15.3963 20.1755L14.9647 20.5924L15.3963 20.1755ZM17.7768 19.3985L18.3739 19.4574L17.7768 19.3985ZM17.8918 18.6575L18.4568 18.8595L17.8918 18.6575ZM19.3587 17.7607L19.4218 18.3573L19.3587 17.7607ZM18.643 17.8797L18.4282 17.3194V17.3195L18.643 17.8797ZM20.1091 15.2958L19.6775 15.7127L20.1091 15.2958ZM20.9224 16.2639L20.3643 16.4842V16.4842L20.9224 16.2639ZM20.5327 17.5437L20.846 18.0555L20.846 18.0555L20.5327 17.5437ZM16.3313 21.0176L16.565 20.465H16.565L16.3313 21.0176ZM17.5673 20.6141L18.0883 20.9117L18.0883 20.9117L17.5673 20.6141ZM12.2454 8.81225L12.3338 8.97098L13.382 8.3867L13.2935 8.22797L12.2454 8.81225ZM13.3059 9.70463L13.4777 9.74351L13.7425 8.57309L13.5707 8.53422L13.3059 9.70463ZM13.6292 10.296L13.512 10.4329L14.424 11.2129L14.5412 11.0759L13.6292 10.296ZM13.1491 11.5937L13.1668 11.7764L14.3612 11.6607L14.3435 11.4779L13.1491 11.5937ZM12.7713 12.1177L12.6104 12.0436L12.1085 13.1336L12.2694 13.2077L12.7713 12.1177ZM11.3911 12.0436L11.2303 12.1177L11.7322 13.2077L11.893 13.1336L11.3911 12.0436ZM10.8347 11.7764L10.8524 11.5937L9.65802 11.4779L9.64032 11.6607L10.8347 11.7764ZM10.4895 10.4329L10.3724 10.296L9.46041 11.0759L9.57754 11.2129L10.4895 10.4329ZM10.5239 9.74351L10.6957 9.70463L10.4309 8.53422L10.259 8.57309L10.5239 9.74351ZM11.6677 8.97098L11.7562 8.81226L10.7081 8.22797L10.6196 8.3867L11.6677 8.97098ZM10.6957 9.70463C10.8328 9.6736 11.0816 9.63006 11.2849 9.47576L10.5593 8.51996C10.5944 8.49336 10.6213 8.48673 10.6046 8.49198C10.5944 8.49519 10.577 8.50007 10.5463 8.50754C10.5155 8.51505 10.4794 8.52323 10.4309 8.53422L10.6957 9.70463ZM10.6196 8.3867C10.5946 8.43144 10.5758 8.4652 10.5592 8.49398C10.5426 8.52265 10.5322 8.5395 10.5252 8.5499C10.513 8.56837 10.5251 8.54592 10.5593 8.51996L11.2849 9.47576C11.4844 9.32432 11.5966 9.09854 11.6677 8.97098L10.6196 8.3867ZM10.3724 10.296C10.1331 10.0162 9.99899 9.85692 9.92471 9.73892C9.85451 9.62741 9.92798 9.69126 9.88922 9.81591L8.74335 9.45957C8.62558 9.83827 8.77275 10.1615 8.90917 10.3782C9.04152 10.5884 9.24692 10.8262 9.46041 11.0759L10.3724 10.296ZM10.259 8.57309C9.94737 8.64361 9.64362 8.71058 9.41447 8.80089C9.17401 8.89565 8.86315 9.07434 8.74335 9.45957L9.88922 9.81591C9.84842 9.9471 9.74309 9.9612 9.85444 9.91732C9.9771 9.86898 10.1714 9.82325 10.5239 9.74351L10.259 8.57309ZM10.8524 11.5937C10.867 11.443 10.9017 11.1991 10.8284 10.9635L9.68253 11.3198C9.67134 11.2838 9.67409 11.2625 9.67361 11.2863C9.67334 11.2996 9.67227 11.3202 9.66953 11.3537C9.66678 11.3874 9.66301 11.4265 9.65802 11.4779L10.8524 11.5937ZM9.57754 11.2129C9.61058 11.2515 9.63541 11.2806 9.65639 11.3059C9.67726 11.3311 9.68925 11.3465 9.6965 11.3565C9.70883 11.3734 9.69389 11.3563 9.68253 11.3198L10.8284 10.9635C10.7543 10.7253 10.5858 10.5455 10.4895 10.4329L9.57754 11.2129ZM11.2303 12.1177C10.9002 12.2696 10.717 12.3521 10.5906 12.3883C10.5338 12.4046 10.5296 12.3985 10.5564 12.4002C10.5965 12.4026 10.654 12.4189 10.7045 12.4572L9.97888 13.413C10.3099 13.6643 10.6772 13.6118 10.9211 13.5419C11.1573 13.4742 11.4404 13.342 11.7322 13.2077L11.2303 12.1177ZM9.64032 11.6607C9.60796 11.9946 9.57587 12.3105 9.58696 12.5595C9.5981 12.8095 9.65766 13.1692 9.97888 13.413L10.7045 12.4572C10.8189 12.5441 10.7921 12.6486 10.7858 12.5061C10.7794 12.3627 10.7986 12.1489 10.8347 11.7764L9.64032 11.6607ZM12.6104 12.0436C12.484 11.9854 12.2568 11.8666 12.0008 11.8666V13.0666C11.9537 13.0666 11.9266 13.0546 11.9438 13.0609C11.9539 13.0646 11.9709 13.0714 12 13.0842C12.0292 13.0971 12.0631 13.1127 12.1085 13.1336L12.6104 12.0436ZM11.893 13.1336C11.9385 13.1127 11.9723 13.0971 12.0016 13.0842C12.0307 13.0714 12.0476 13.0646 12.0578 13.0609C12.075 13.0546 12.0479 13.0666 12.0008 13.0666V11.8666C11.7448 11.8666 11.5175 11.9854 11.3911 12.0436L11.893 13.1336ZM13.1668 11.7764C13.2029 12.1489 13.2222 12.3627 13.2158 12.5061C13.2094 12.6486 13.1827 12.5441 13.2971 12.4572L14.0227 13.413C14.3439 13.1692 14.4035 12.8095 14.4146 12.5595C14.4257 12.3105 14.3936 11.9946 14.3612 11.6607L13.1668 11.7764ZM12.2694 13.2077C12.5612 13.342 12.8443 13.4742 13.0805 13.5419C13.3244 13.6118 13.6917 13.6643 14.0227 13.413L13.2971 12.4572C13.3475 12.4189 13.4051 12.4026 13.4451 12.4002C13.472 12.3985 13.4678 12.4046 13.411 12.3883C13.2846 12.3521 13.1013 12.2696 12.7713 12.1177L12.2694 13.2077ZM13.512 10.4329C13.4158 10.5455 13.2472 10.7253 13.1732 10.9635L14.319 11.3198C14.3077 11.3563 14.2927 11.3734 14.3051 11.3565C14.3123 11.3465 14.3243 11.3311 14.3452 11.3059C14.3662 11.2806 14.391 11.2515 14.424 11.2129L13.512 10.4329ZM14.3435 11.4779C14.3386 11.4264 14.3348 11.3874 14.332 11.3537C14.3293 11.3202 14.3282 11.2996 14.3279 11.2863C14.3275 11.2625 14.3302 11.2838 14.319 11.3198L13.1732 10.9635C13.0999 11.1991 13.1345 11.443 13.1491 11.5937L14.3435 11.4779ZM13.4777 9.74351C13.8301 9.82325 14.0245 9.86898 14.1471 9.91732C14.2585 9.9612 14.1531 9.9471 14.1123 9.81591L15.2582 9.45957C15.1384 9.07434 14.8276 8.89565 14.5871 8.80089C14.3579 8.71058 14.0542 8.64361 13.7425 8.57309L13.4777 9.74351ZM14.5412 11.0759C14.7546 10.8262 14.96 10.5884 15.0924 10.3782C15.2288 10.1615 15.376 9.83827 15.2582 9.45957L14.1123 9.81591C14.0736 9.69126 14.1471 9.62741 14.0769 9.73892C14.0026 9.85692 13.8684 10.0162 13.6292 10.296L14.5412 11.0759ZM12.3338 8.97098C12.4049 9.09854 12.5172 9.32432 12.7167 9.47576L13.4422 8.51996C13.4764 8.54592 13.4886 8.56837 13.4763 8.5499C13.4694 8.5395 13.4589 8.52265 13.4424 8.49398C13.4258 8.4652 13.4069 8.43144 13.382 8.38669L12.3338 8.97098ZM13.5707 8.53422C13.5221 8.52323 13.4861 8.51505 13.4552 8.50754C13.4246 8.50007 13.4072 8.49519 13.397 8.49198C13.3803 8.48673 13.4072 8.49336 13.4422 8.51996L12.7167 9.47576C12.9199 9.63006 13.1687 9.6736 13.3059 9.70463L13.5707 8.53422ZM13.2935 8.22797C13.1323 7.93875 12.9796 7.66163 12.8291 7.46512C12.6783 7.26822 12.4163 6.99985 12.0008 6.99985V8.19985C11.8409 8.19985 11.7922 8.08486 11.8764 8.19472C11.9608 8.30496 12.0646 8.48797 12.2454 8.81226L13.2935 8.22797ZM11.7562 8.81226C11.937 8.48797 12.0408 8.30496 12.1252 8.19472C12.2093 8.08486 12.1607 8.19985 12.0008 8.19985V6.99985C11.5852 6.99985 11.3233 7.26822 11.1725 7.46512C11.022 7.66163 10.8693 7.93875 10.7081 8.22797L11.7562 8.81226ZM17.7031 10.3C17.7031 13.448 15.1511 16 12.0031 16V17.2C15.8139 17.2 18.9031 14.1108 18.9031 10.3H17.7031ZM12.0031 16C8.8551 16 6.30312 13.448 6.30312 10.3H5.10313C5.10313 14.1108 8.19236 17.2 12.0031 17.2V16ZM6.30312 10.3C6.30312 7.15198 8.8551 4.6 12.0031 4.6V3.4C8.19236 3.4 5.10313 6.48923 5.10313 10.3H6.30312ZM12.0031 4.6C15.1511 4.6 17.7031 7.15198 17.7031 10.3H18.9031C18.9031 6.48923 15.8139 3.4 12.0031 3.4V4.6ZM11.5704 16.2442L8.17606 19.7587L9.03922 20.5924L12.4335 17.0779L11.5704 16.2442ZM6.82421 19.3396C6.78945 18.9873 6.76593 18.7039 6.6771 18.4555L5.54715 18.8595C5.57398 18.9345 5.58856 19.0373 5.63 19.4574L6.82421 19.3396ZM4.58215 18.3573C4.99092 18.4006 5.08144 18.4151 5.1462 18.44L5.57569 17.3194C5.32805 17.2245 5.04557 17.1996 4.70836 17.164L4.58215 18.3573ZM6.6771 18.4555C6.49054 17.9337 6.09374 17.518 5.57569 17.3195L5.1462 18.44C5.32755 18.5095 5.4748 18.6571 5.54715 18.8595L6.6771 18.4555ZM3.46322 14.879C3.22501 15.1257 3.02912 15.3282 2.88386 15.4959C2.74298 15.6586 2.60453 15.8382 2.52343 16.0437L3.63965 16.4842C3.6395 16.4846 3.64554 16.4693 3.67024 16.4333C3.69518 16.397 3.73304 16.3484 3.79098 16.2815C3.9098 16.1443 4.07849 15.9693 4.32638 15.7127L3.46322 14.879ZM4.70836 17.164C4.37027 17.1282 4.14407 17.104 3.97823 17.0763C3.80417 17.0471 3.77244 17.0247 3.78447 17.032L3.15793 18.0555C3.35309 18.1749 3.57807 18.226 3.7801 18.2598C3.99035 18.295 4.25962 18.3232 4.58215 18.3573L4.70836 17.164ZM2.52343 16.0437C2.23541 16.7735 2.4682 17.6332 3.15792 18.0555L3.78447 17.032C3.63959 16.9433 3.54435 16.7257 3.63965 16.4842L2.52343 16.0437ZM8.17606 19.7587C7.92812 20.0154 7.7592 20.19 7.62681 20.3129C7.56221 20.3729 7.51564 20.4117 7.48136 20.437C7.44727 20.4621 7.4347 20.4668 7.43887 20.465L7.90644 21.5702C8.11114 21.4836 8.28718 21.3373 8.44328 21.1924C8.6054 21.0418 8.80106 20.839 9.03922 20.5924L8.17606 19.7587ZM5.63 19.4574C5.66303 19.7921 5.69009 20.0688 5.72374 20.2843C5.75602 20.491 5.80399 20.7163 5.91557 20.9117L6.95764 20.3166C6.96094 20.3224 6.9379 20.2818 6.90937 20.0992C6.88222 19.9253 6.85867 19.6889 6.82421 19.3396L5.63 19.4574ZM7.43886 20.465C7.23947 20.5494 7.0482 20.4752 6.95763 20.3166L5.91557 20.9117C6.31846 21.6172 7.16777 21.8827 7.90644 21.5702L7.43886 20.465ZM4.32638 15.7127L6.54371 13.4168L5.68055 12.5832L3.46322 14.879L4.32638 15.7127ZM11.5704 17.0779L14.9647 20.5924L15.8278 19.7587L12.4335 16.2442L11.5704 17.0779ZM18.3739 19.4574C18.4154 19.0373 18.4299 18.9345 18.4568 18.8595L17.3268 18.4555C17.238 18.7039 17.2145 18.9873 17.1797 19.3396L18.3739 19.4574ZM19.2955 17.164C18.9583 17.1996 18.6759 17.2245 18.4282 17.3194L18.8577 18.44C18.9225 18.4151 19.013 18.4006 19.4218 18.3573L19.2955 17.164ZM18.4568 18.8595C18.5291 18.6571 18.6764 18.5095 18.8577 18.44L18.4282 17.3195C17.9102 17.518 17.5134 17.9337 17.3268 18.4555L18.4568 18.8595ZM19.6775 15.7127C19.9254 15.9693 20.0941 16.1443 20.2129 16.2815C20.2709 16.3484 20.3087 16.397 20.3337 16.4333C20.3584 16.4693 20.3644 16.4846 20.3643 16.4842L21.4805 16.0437C21.3994 15.8382 21.2609 15.6586 21.12 15.4959C20.9748 15.3282 20.7789 15.1257 20.5407 14.879L19.6775 15.7127ZM19.4218 18.3573C19.7443 18.3232 20.0136 18.295 20.2238 18.2598C20.4258 18.226 20.6508 18.1749 20.846 18.0555L20.2194 17.032C20.2315 17.0247 20.1997 17.0471 20.0257 17.0763C19.8598 17.104 19.6336 17.1282 19.2955 17.164L19.4218 18.3573ZM20.3643 16.4842C20.4596 16.7257 20.3643 16.9433 20.2194 17.032L20.846 18.0555C21.5357 17.6332 21.7685 16.7735 21.4805 16.0437L20.3643 16.4842ZM14.9647 20.5924C15.2028 20.839 15.3985 21.0418 15.5606 21.1924C15.7167 21.3373 15.8928 21.4836 16.0975 21.5702L16.565 20.465C16.5692 20.4668 16.5566 20.4621 16.5225 20.437C16.4883 20.4117 16.4417 20.3729 16.3771 20.3129C16.2447 20.19 16.0758 20.0154 15.8278 19.7587L14.9647 20.5924ZM17.1797 19.3396C17.1452 19.6889 17.1217 19.9253 17.0945 20.0992C17.066 20.2818 17.043 20.3224 17.0463 20.3166L18.0883 20.9117C18.1999 20.7163 18.2479 20.491 18.2802 20.2843C18.3138 20.0688 18.3409 19.7921 18.3739 19.4574L17.1797 19.3396ZM16.0975 21.5702C16.8361 21.8827 17.6854 21.6172 18.0883 20.9117L17.0463 20.3166C16.9557 20.4752 16.7644 20.5494 16.565 20.465L16.0975 21.5702ZM20.5407 14.879L18.3234 12.5832L17.4602 13.4168L19.6775 15.7127L20.5407 14.879Z" fill="#0166FF"/>
</svg>

<svg xmlns="http://www.w3.org/2000/svg" width="24" height="24" fill="none"><path fill="#0166FF" d="m10.563 9.12.133.585zm.58-.441.525.292zm-1.227 2.007-.456.39zm.476-1.528-.133-.585zm-.137 2.378.597.058zm-.222-.713.457-.39zm1.448 1.84.251.545zm-1.243-.944-.598-.058zm2.122.87.25-.545zm-.718 0-.25-.545zm.359-.122v-.6zm1.763-.748-.597.057zm-1.244.944-.25.545zm1.448-1.84-.456-.39zm-.222.713.598-.058zm-.136-2.378-.132.586zm.475 1.528.456.39zm-1.227-2.007-.524.292zm.58.44.133-.585zm-.669-.599.524-.292zm-1.537 0-.524-.292zm.77 8.141.431-.417a.6.6 0 0 0-.863 0zm-3.394 3.514.431.417zm-2.38-.777-.598.06zm-.116-.74-.565.201zm-1.467-.897-.063.596zm.716.119.215-.56zm-1.466-2.584.431.417zm-.813.968.558.22zm.39 1.28-.314.511zm4.2 3.474-.233-.553zm-1.235-.404-.521.298zm8.96-.439-.432.417zm2.38-.777.597.06zm.115-.74.565.201zm1.467-.897.063.596zm-.716.119-.215-.56zm1.466-2.584-.432.417zm.813.968-.558.22zm-.39 1.28.314.511zm-4.2 3.474.233-.553zm1.235-.404.521.298zM12.245 8.812l.089.159 1.048-.584-.088-.159zm1.06.893.173.039.264-1.17-.171-.04zm.324.591-.117.137.912.78.117-.137zm-.48 1.298.018.182 1.194-.115-.018-.183zm-.378.524-.16-.074-.503 1.09.161.074zm-1.38-.074-.16.074.501 1.09.161-.074zm-.556-.268.017-.182-1.194-.116-.018.183zm-.346-1.343-.117-.137-.912.78.118.137zm.035-.69.172-.038-.265-1.17-.172.038zm1.144-.772.088-.159-1.048-.584-.088.159zm-.972.734c.137-.031.386-.075.589-.23l-.726-.955c.035-.027.062-.033.046-.028l-.059.016-.115.026zm-.076-1.318-.06.107-.035.056c-.012.018 0-.004.034-.03l.726.956c.2-.152.312-.377.383-.505zm-.248 1.909c-.239-.28-.373-.44-.447-.557-.07-.112.003-.048-.036.077L8.743 9.46c-.117.378.03.701.166.918.133.21.338.448.551.698zm-.113-1.723c-.312.07-.615.138-.845.228-.24.095-.55.273-.67.659l1.145.356c-.04.131-.146.145-.035.101.123-.048.317-.094.67-.173zm.593 3.02c.015-.15.05-.394-.024-.63l-1.145.357c-.012-.036-.009-.058-.01-.034q0 .019-.003.068l-.012.124zm-1.274-.38.119.144c.012.016-.003 0-.014-.037l1.145-.357c-.074-.238-.242-.417-.338-.53zm1.652.905c-.33.152-.513.234-.64.27-.056.017-.06.01-.034.012.04.003.098.019.149.057l-.726.956c.33.251.698.199.942.129.236-.068.52-.2.811-.334zm-1.59-.457c-.032.334-.064.65-.053.899.011.25.07.61.392.853l.726-.956c.114.087.087.192.08.05-.006-.144.014-.358.05-.73zm2.97.383c-.126-.059-.353-.177-.61-.177v1.2c-.046 0-.073-.012-.056-.006q.014.005.056.023l.108.05zm-.717 1.09.109-.05.056-.023c.017-.006-.01.006-.057.006v-1.2c-.256 0-.483.118-.61.177zm1.274-1.358c.036.373.055.587.049.73-.007.143-.033.038.081-.049l.726.956c.32-.244.38-.604.392-.854.01-.248-.021-.564-.054-.898zm-.898 1.432c.292.134.575.266.812.334.243.07.61.122.942-.129l-.726-.956a.3.3 0 0 1 .148-.057c.027-.002.023.005-.034-.012-.126-.036-.31-.118-.64-.27zm1.243-2.775c-.096.113-.265.292-.339.53l1.146.357c-.011.036-.026.053-.014.037l.04-.051.079-.093zm.832 1.045c-.005-.052-.01-.09-.012-.124l-.004-.068c0-.024.002-.002-.009.034l-1.146-.357c-.073.236-.039.48-.024.63zm-.866-1.734c.352.08.547.125.67.173.11.044.005.03-.036-.101l1.146-.356c-.12-.386-.43-.564-.67-.66-.23-.09-.534-.156-.845-.227zm1.063 1.332c.214-.25.419-.488.551-.698.137-.216.284-.54.166-.918l-1.146.356c-.038-.125.035-.189-.035-.077-.074.118-.209.277-.448.557zM12.334 8.97c.07.128.183.353.383.505l.725-.956c.034.026.047.048.034.03l-.034-.056-.06-.107zm1.237-.437-.174-.042c-.017-.005.01.001.045.028l-.725.956c.203.154.452.198.589.229zm-.277-.306c-.162-.29-.314-.566-.465-.763-.15-.197-.413-.465-.828-.465v1.2c-.16 0-.209-.115-.125-.005.085.11.189.293.37.617zm-1.538.584c.181-.324.285-.507.37-.617.083-.11.035.005-.125.005V7c-.416 0-.678.268-.828.465-.151.197-.304.474-.465.763zm5.947 1.488a5.7 5.7 0 0 1-5.7 5.7v1.2a6.9 6.9 0 0 0 6.9-6.9zm-5.7 5.7a5.7 5.7 0 0 1-5.7-5.7h-1.2a6.9 6.9 0 0 0 6.9 6.9zm-5.7-5.7a5.7 5.7 0 0 1 5.7-5.7V3.4a6.9 6.9 0 0 0-6.9 6.9zm5.7-5.7a5.7 5.7 0 0 1 5.7 5.7h1.2a6.9 6.9 0 0 0-6.9-6.9zm-.433 11.644L8.176 19.76l.863.833 3.395-3.514zM6.824 19.34c-.035-.353-.058-.636-.147-.884l-1.13.404c.027.075.042.177.083.597zm-2.242-.983c.409.044.5.058.564.083l.43-1.12c-.248-.096-.53-.12-.868-.156zm2.095.099a1.89 1.89 0 0 0-1.101-1.136l-.43 1.12a.69.69 0 0 1 .401.42zm-3.214-3.577c-.238.247-.434.45-.58.617-.14.163-.278.342-.36.548l1.117.44s.006-.015.03-.05q.036-.054.121-.152c.119-.138.287-.313.535-.57zm1.245 2.285a14 14 0 0 1-.73-.088c-.174-.029-.206-.051-.194-.044l-.626 1.023c.195.12.42.171.622.205.21.035.48.063.802.097zm-2.185-1.12c-.288.73-.055 1.59.635 2.011l.626-1.023c-.144-.089-.24-.306-.144-.548zm5.653 3.715c-.248.256-.417.431-.55.554q-.094.088-.145.124c-.034.025-.046.03-.042.028l.467 1.105c.205-.086.381-.233.537-.378.162-.15.358-.353.596-.6zm-2.546-.302c.033.335.06.612.094.827.032.207.08.432.192.628l1.042-.595c.003.005-.02-.035-.049-.218-.027-.174-.05-.41-.085-.76zm1.809 1.008c-.2.084-.39.01-.481-.148l-1.042.595a1.57 1.57 0 0 0 1.99.658zm-3.113-4.752 2.218-2.296-.863-.834-2.218 2.296zm7.244 1.365 3.395 3.514.863-.833-3.394-3.515zm6.804 2.38c.041-.42.056-.523.083-.598l-1.13-.404c-.089.248-.113.531-.147.884zm.922-2.294c-.338.036-.62.06-.868.155l.43 1.121c.064-.025.155-.04.564-.083zm-.84 1.695a.69.69 0 0 1 .402-.419l-.43-1.12a1.89 1.89 0 0 0-1.101 1.136zm1.221-3.146c.248.256.417.431.536.569a2 2 0 0 1 .12.151c.025.036.031.052.031.051l1.116-.44a2 2 0 0 0-.36-.548c-.145-.168-.341-.37-.58-.617zm-.255 2.644c.322-.034.592-.062.802-.097.202-.034.427-.085.622-.205l-.627-1.023c.012-.007-.02.015-.193.044-.166.028-.392.052-.73.088zm.942-1.873c.096.242 0 .46-.145.548l.627 1.023c.69-.422.922-1.282.634-2.011zm-5.4 4.108c.239.247.434.45.597.6.156.145.332.292.537.378l.467-1.105c.004.002-.008-.003-.043-.028a2 2 0 0 1-.145-.124 16 16 0 0 1-.55-.554zm2.216-1.252c-.035.349-.058.585-.085.76-.029.182-.052.222-.049.217l1.042.595c.112-.196.16-.421.192-.628.034-.215.06-.492.094-.827zm-1.082 2.23a1.57 1.57 0 0 0 1.99-.658l-1.042-.595c-.09.158-.282.232-.481.148zm4.443-6.691-2.218-2.296-.863.834 2.217 2.296z"/></svg>
